; generated by PrusaSlicer 2.4.2+linux-x64-GTK3 on 2024-03-02 at 22:49:59 UTC

; 

; external perimeters extrusion width = 0.45mm
; perimeters extrusion width = 0.45mm
; infill extrusion width = 0.45mm
; solid infill extrusion width = 0.45mm
; top infill extrusion width = 0.40mm
; first layer extrusion width = 0.42mm

M107
M190 S60 ; set bed temperature and wait for it to be reached
M104 S200 ; set temperature
;TYPE:Custom
G28 ; home all axes
G1 Z5 F5000 ; lift nozzle
M109 S200 ; set temperature and wait for it to be reached
G21 ; set units to millimeters
G90 ; use absolute coordinates
M82 ; use absolute distances for extrusion
G92 E0
; Filament gcode
M107
;LAYER_CHANGE
;Z:0.35
;HEIGHT:0.35
G1 Z.35 F7800
G1 E-2 F2400
G92 E0
G1 X104.524 Y103.459 F7800
G1 E2 F2400
;TYPE:Skirt/Brim
;WIDTH:0.42
G1 F1800
G1 X106.606 Y101.657 E2.13817
G1 X108.95 Y99.988 E2.28258
G1 X111.343 Y98.605 E2.42131
G1 X114.409 Y97.233 E2.5899
G1 X117.193 Y96.324 E2.73683
G1 X119.88 Y95.725 E2.87501
G1 X122.61 Y95.377 E3.01315
G1 X125.556 Y95.286 E3.16103
G1 X128.303 Y95.465 E3.2992
G1 X131.174 Y95.93 E3.44515
G1 X134.416 Y96.812 E3.61379
G1 X136.994 Y97.809 E3.7525
G1 X139.585 Y99.105 E3.89788
G1 X141.918 Y100.566 E4.03603
G1 X144.206 Y102.32 E4.1807
G1 X146.291 Y104.266 E4.32384
G1 X148.126 Y106.334 E4.46259
G1 X150.084 Y109.063 E4.63117
G1 X151.543 Y111.63 E4.77936
G1 X152.666 Y114.144 E4.91751
G1 X153.552 Y116.751 E5.05569
G1 X154.224 Y119.597 E5.20249
G1 X154.646 Y122.931 E5.37111
G1 X154.708 Y125.823 E5.51629
G1 X154.481 Y128.759 E5.66408
G1 X154.006 Y131.471 E5.80225
G1 X153.284 Y134.127 E5.94038
G1 X152.245 Y136.871 E6.08766
G1 X150.732 Y139.87 E6.25623
G1 X149.239 Y142.197 E6.39496
G1 X147.466 Y144.456 E6.53908
G1 X145.476 Y146.541 E6.68374
G1 X143.394 Y148.343 E6.8219
G1 X141.05 Y150.012 E6.96632
G1 X138.657 Y151.395 E7.10505
G1 X135.591 Y152.768 E7.27364
G1 X132.808 Y153.676 E7.42056
G1 X130.12 Y154.275 E7.55874
G1 X127.39 Y154.623 E7.69688
G1 X124.444 Y154.714 E7.84477
G1 X121.697 Y154.535 E7.98293
G1 X118.826 Y154.07 E8.12893
G1 X115.584 Y153.188 E8.29752
G1 X113.006 Y152.191 E8.43624
G1 X110.415 Y150.895 E8.58161
G1 X108.082 Y149.434 E8.71976
G1 X105.794 Y147.68 E8.86444
G1 X103.709 Y145.734 E9.00758
G1 X101.874 Y143.666 E9.14633
G1 X99.916 Y140.937 E9.31491
G1 X98.457 Y138.37 E9.4631
G1 X97.334 Y135.856 E9.60127
G1 X96.448 Y133.249 E9.73943
G1 X95.776 Y130.402 E9.88625
G1 X95.354 Y127.07 E10.05483
G1 X95.292 Y124.177 E10.20004
G1 X95.519 Y121.241 E10.34781
G1 X95.994 Y118.529 E10.48598
G1 X96.717 Y115.873 E10.62414
G1 X97.755 Y113.129 E10.77138
G1 X99.268 Y110.13 E10.93997
G1 X100.761 Y107.803 E11.0787
G1 X102.534 Y105.544 E11.22281
G1 X104.483 Y103.503 E11.36446
G1 E9.36446 F2400
G92 E0
G1 X121.843 Y121.794 F7800
G1 E2 F2400
;TYPE:Perimeter
G1 F1800
G1 X122.098 Y121.559 E2.01743
G1 X122.638 Y121.167 E2.0509
G1 X123.271 Y120.844 E2.08658
G1 X123.637 Y120.71 E2.10611
G1 X124.284 Y120.555 E2.13952
G1 X124.988 Y120.498 E2.17498
G1 X125.715 Y120.555 E2.21155
G1 X126.363 Y120.71 E2.24503
G1 X126.729 Y120.844 E2.26455
G1 X127.362 Y121.167 E2.30023
G1 X127.902 Y121.559 E2.3337
G1 X128.188 Y121.822 E2.35323
G1 X128.649 Y122.363 E2.38891
G1 X128.998 Y122.932 E2.42238
G1 X129.161 Y123.285 E2.44188
G1 X129.38 Y123.955 E2.47728
G1 X129.485 Y124.623 E2.51119
G1 X129.5 Y124.993 E2.5298
G1 X129.485 Y125.377 E2.54906
G1 X129.38 Y126.045 E2.583
G1 X129.161 Y126.715 E2.6184
G1 X128.998 Y127.068 E2.63791
G1 X128.649 Y127.637 E2.67138
G1 X128.188 Y128.177 E2.70705
G1 X127.902 Y128.441 E2.72658
G1 X127.362 Y128.833 E2.76006
G1 X126.729 Y129.156 E2.79573
G1 X126.363 Y129.29 E2.81526
G1 X125.716 Y129.445 E2.84867
G1 X125.012 Y129.502 E2.88413
G1 X124.285 Y129.445 E2.92071
G1 X123.637 Y129.29 E2.95418
G1 X123.271 Y129.156 E2.9737
G1 X122.638 Y128.833 E3.00938
G1 X122.098 Y128.441 E3.04285
G1 X121.812 Y128.177 E3.06238
G1 X121.351 Y127.637 E3.09806
G1 X121.002 Y127.068 E3.13153
G1 X120.839 Y126.715 E3.15103
G1 X120.62 Y126.045 E3.18643
G1 X120.515 Y125.377 E3.22034
G1 X120.5 Y125.007 E3.23895
G1 X120.515 Y124.623 E3.25821
G1 X120.62 Y123.955 E3.29215
G1 X120.839 Y123.285 E3.32755
G1 X121.002 Y122.932 E3.34706
G1 X121.351 Y122.363 E3.38053
G1 X121.8 Y121.836 E3.41529
G1 X122.076 Y122.048 F7800
G1 F1800
G1 X122.317 Y121.826 E3.43172
G1 X122.819 Y121.462 E3.46284
G1 X123.409 Y121.161 E3.49611
G1 X123.736 Y121.041 E3.51359
G1 X124.339 Y120.897 E3.54466
G1 X124.989 Y120.844 E3.57741
G1 X125.661 Y120.896 E3.61123
G1 X126.264 Y121.041 E3.64235
G1 X126.591 Y121.161 E3.65982
G1 X127.181 Y121.462 E3.69309
G1 X127.683 Y121.826 E3.72421
G1 X127.939 Y122.062 E3.74169
G1 X128.369 Y122.567 E3.77496
G1 X128.693 Y123.095 E3.80607
G1 X128.84 Y123.411 E3.82354
G1 X129.043 Y124.036 E3.85654
G1 X129.141 Y124.657 E3.88807
G1 X129.155 Y124.993 E3.90498
G1 X129.142 Y125.343 E3.92253
G1 X129.043 Y125.964 E3.95408
G1 X128.84 Y126.589 E3.98708
G1 X128.693 Y126.905 E4.00455
G1 X128.369 Y127.433 E4.03566
G1 X127.939 Y127.938 E4.06893
G1 X127.683 Y128.174 E4.08641
G1 X127.181 Y128.538 E4.11753
G1 X126.591 Y128.839 E4.1508
G1 X126.264 Y128.959 E4.16828
G1 X125.661 Y129.103 E4.19935
G1 X125.011 Y129.156 E4.2321
G1 X124.339 Y129.104 E4.26592
G1 X123.736 Y128.959 E4.29703
G1 X123.409 Y128.839 E4.31451
G1 X122.819 Y128.538 E4.34778
G1 X122.317 Y128.174 E4.3789
G1 X122.061 Y127.938 E4.39638
G1 X121.631 Y127.433 E4.42965
G1 X121.307 Y126.905 E4.46076
G1 X121.16 Y126.589 E4.47823
G1 X120.957 Y125.964 E4.51123
G1 X120.859 Y125.343 E4.54276
G1 X120.845 Y125.007 E4.55967
G1 X120.858 Y124.657 E4.57722
G1 X120.957 Y124.036 E4.60877
G1 X121.16 Y123.411 E4.64177
G1 X121.307 Y123.095 E4.65924
G1 X121.631 Y122.567 E4.69035
G1 X122.035 Y122.092 E4.72166
G1 X122.31 Y122.302 F7800
;TYPE:External perimeter
G1 F1800
G1 X122.536 Y122.094 E4.73709
G1 X123 Y121.757 E4.76585
G1 X123.547 Y121.478 E4.79671
G1 X123.836 Y121.372 E4.81215
G1 X124.393 Y121.238 E4.84089
G1 X124.989 Y121.19 E4.87091
G1 X125.607 Y121.238 E4.90198
G1 X126.164 Y121.372 E4.93074
G1 X126.453 Y121.478 E4.94617
G1 X127 Y121.757 E4.97704
G1 X127.464 Y122.094 E5.00579
G1 X127.69 Y122.302 E5.02123
G1 X128.09 Y122.77 E5.05209
G1 X128.389 Y123.258 E5.08085
G1 X128.518 Y123.537 E5.09628
G1 X128.707 Y124.117 E5.12687
G1 X128.798 Y124.691 E5.15603
G1 X128.81 Y124.994 E5.17124
G1 X128.798 Y125.309 E5.18707
G1 X128.707 Y125.883 E5.21624
G1 X128.518 Y126.463 E5.24684
G1 X128.389 Y126.742 E5.26227
G1 X128.09 Y127.23 E5.29102
G1 X127.69 Y127.698 E5.32188
G1 X127.464 Y127.906 E5.33732
G1 X127 Y128.243 E5.36608
G1 X126.453 Y128.522 E5.39694
G1 X126.164 Y128.628 E5.41238
G1 X125.607 Y128.762 E5.44112
G1 X125.011 Y128.81 E5.47114
G1 X124.393 Y128.762 E5.50221
G1 X123.836 Y128.628 E5.53097
G1 X123.547 Y128.522 E5.5464
G1 X123 Y128.243 E5.57726
G1 X122.536 Y127.906 E5.60602
G1 X122.31 Y127.698 E5.62146
G1 X121.91 Y127.23 E5.65232
G1 X121.611 Y126.742 E5.68108
G1 X121.482 Y126.463 E5.69651
G1 X121.293 Y125.883 E5.7271
G1 X121.202 Y125.309 E5.75626
G1 X121.19 Y125.006 E5.77147
G1 X121.202 Y124.691 E5.7873
G1 X121.293 Y124.117 E5.81647
G1 X121.482 Y123.537 E5.84706
G1 X121.611 Y123.258 E5.8625
G1 X121.91 Y122.77 E5.89125
G1 X122.271 Y122.348 E5.9191
G1 X122.223 Y122.007 F7800
G1 E3.9191 F2400
G92 E0
G1 X108.581 Y109.668 F7800
G1 E2 F2400
;TYPE:Perimeter
G1 F1800
G1 X108.946 Y109.272 E2.02701
G1 X109.523 Y108.703 E2.06769
G1 X110.475 Y107.85 E2.13182
G1 X111.103 Y107.337 E2.17256
G1 X112.13 Y106.576 E2.23669
G1 X112.804 Y106.122 E2.27743
G1 X113.897 Y105.46 E2.34156
G1 X114.608 Y105.072 E2.38225
G1 X115.869 Y104.464 E2.45248
G1 X117.046 Y103.981 E2.51634
G1 X117.809 Y103.707 E2.55703
G1 X119.148 Y103.301 E2.62725
G1 X120.386 Y103.005 E2.69112
G1 X121.183 Y102.852 E2.73186
G1 X122.448 Y102.672 E2.796
G1 X123.255 Y102.593 E2.83669
G1 X124.657 Y102.528 E2.9071
G1 X125.468 Y102.531 E2.9478
G1 X126.739 Y102.593 E3.01168
G1 X128.13 Y102.744 E3.08188
G1 X128.93 Y102.873 E3.12258
G1 X130.182 Y103.131 E3.18671
G1 X130.968 Y103.333 E3.22745
G1 X132.19 Y103.706 E3.29159
G1 X132.954 Y103.981 E3.33233
G1 X134.136 Y104.466 E3.39645
G1 X134.872 Y104.81 E3.43719
G1 X135.999 Y105.4 E3.50105
G1 X137.197 Y106.123 E3.57129
G1 X137.87 Y106.576 E3.61198
G1 X138.892 Y107.333 E3.67582
G1 X139.965 Y108.232 E3.74608
G1 X140.56 Y108.783 E3.78675
G1 X141.456 Y109.693 E3.85089
G1 X141.998 Y110.297 E3.89157
G1 X142.88 Y111.383 E3.96182
G1 X143.622 Y112.417 E4.02567
G1 X144.064 Y113.098 E4.06641
G1 X144.71 Y114.201 E4.13054
G1 X145.087 Y114.919 E4.17128
G1 X145.627 Y116.077 E4.2354
G1 X145.936 Y116.828 E4.27614
G1 X146.366 Y118.031 E4.34028
G1 X146.605 Y118.806 E4.38097
G1 X146.948 Y120.163 E4.45119
G1 X147.186 Y121.413 E4.51506
G1 X147.302 Y122.216 E4.55576
G1 X147.432 Y123.608 E4.62596
G1 X147.473 Y124.881 E4.68984
G1 X147.464 Y125.697 E4.73079
G1 X147.423 Y126.511 E4.77174
G1 X147.302 Y127.779 E4.83562
G1 X147.086 Y129.161 E4.90582
G1 X146.921 Y129.954 E4.94651
G1 X146.606 Y131.188 E5.01039
G1 X146.179 Y132.52 E5.08061
G1 X145.894 Y133.279 E5.12129
G1 X145.39 Y134.454 E5.18544
G1 X145.035 Y135.183 E5.22617
G1 X144.424 Y136.306 E5.2903
G1 X144.003 Y137 E5.33104
G1 X143.29 Y138.061 E5.39517
G1 X142.807 Y138.712 E5.43591
G1 X142.002 Y139.698 E5.49976
G1 X141.054 Y140.728 E5.57001
G1 X140.477 Y141.297 E5.61069
G1 X139.525 Y142.15 E5.67483
G1 X138.897 Y142.663 E5.71556
G1 X137.87 Y143.424 E5.77969
G1 X137.196 Y143.878 E5.82043
G1 X136.103 Y144.54 E5.88457
G1 X135.392 Y144.928 E5.92525
G1 X134.131 Y145.536 E5.99548
G1 X132.954 Y146.019 E6.05935
G1 X132.191 Y146.293 E6.10004
G1 X130.852 Y146.699 E6.17025
G1 X129.614 Y146.995 E6.23413
G1 X128.817 Y147.148 E6.27486
G1 X127.552 Y147.328 E6.339
G1 X126.744 Y147.407 E6.37973
G1 X125.468 Y147.469 E6.44386
G1 X124.652 Y147.472 E6.48482
G1 X123.836 Y147.443 E6.52577
G1 X122.567 Y147.343 E6.58964
G1 X121.182 Y147.148 E6.65985
G1 X120.386 Y146.995 E6.70054
G1 X119.148 Y146.699 E6.76442
G1 X117.809 Y146.293 E6.83464
G1 X117.046 Y146.019 E6.87532
G1 X115.864 Y145.534 E6.93946
G1 X115.128 Y145.19 E6.98019
G1 X113.997 Y144.597 E7.04433
G1 X113.296 Y144.186 E7.08506
G1 X112.224 Y143.49 E7.1492
G1 X111.565 Y143.017 E7.18994
G1 X110.567 Y142.228 E7.25379
G1 X109.523 Y141.296 E7.32404
G1 X108.945 Y140.727 E7.36472
G1 X108.077 Y139.789 E7.42885
G1 X107.555 Y139.169 E7.46953
G1 X106.707 Y138.056 E7.53978
G1 X105.997 Y137 E7.60363
G1 X105.576 Y136.307 E7.64432
G1 X104.911 Y135.076 E7.71455
G1 X104.373 Y133.923 E7.77841
G1 X104.064 Y133.172 E7.81915
G1 X103.634 Y131.969 E7.88328
G1 X103.395 Y131.194 E7.92397
G1 X103.052 Y129.837 E7.99419
G1 X102.814 Y128.587 E8.05807
G1 X102.698 Y127.784 E8.09876
G1 X102.568 Y126.392 E8.16896
G1 X102.527 Y125.119 E8.23284
G1 X102.536 Y124.303 E8.27379
G1 X102.577 Y123.489 E8.31474
G1 X102.698 Y122.221 E8.37862
G1 X102.914 Y120.839 E8.44882
G1 X103.079 Y120.046 E8.48952
G1 X103.394 Y118.812 E8.55339
G1 X103.821 Y117.48 E8.62361
G1 X104.106 Y116.721 E8.6643
G1 X104.61 Y115.547 E8.72844
G1 X104.965 Y114.817 E8.76917
G1 X105.576 Y113.694 E8.8333
G1 X105.997 Y113 E8.87404
G1 X106.71 Y111.939 E8.93818
G1 X107.193 Y111.288 E8.97891
G1 X107.998 Y110.302 E9.04276
G1 X108.541 Y109.712 E9.08299
G1 X108.328 Y109.434 F7800
G1 F1800
G1 X108.698 Y109.032 E9.11043
G1 X109.287 Y108.452 E9.15194
G1 X110.25 Y107.588 E9.21687
G1 X110.892 Y107.064 E9.25842
G1 X111.931 Y106.294 E9.32335
G1 X112.618 Y105.832 E9.3649
G1 X113.725 Y105.161 E9.42984
G1 X114.451 Y104.765 E9.47135
G1 X115.728 Y104.149 E9.54253
G1 X116.922 Y103.659 E9.60729
G1 X117.701 Y103.379 E9.64881
G1 X119.058 Y102.967 E9.71998
G1 X120.313 Y102.668 E9.78476
G1 X121.126 Y102.511 E9.8263
G1 X122.407 Y102.329 E9.89124
G1 X123.23 Y102.249 E9.93276
G1 X124.649 Y102.183 E10.00404
G1 X125.477 Y102.187 E10.04557
G1 X126.766 Y102.249 E10.11035
G1 X128.176 Y102.402 E10.18151
G1 X128.993 Y102.533 E10.22303
G1 X130.26 Y102.794 E10.28797
G1 X131.061 Y103.001 E10.32951
G1 X132.299 Y103.379 E10.39445
G1 X133.078 Y103.659 E10.43599
G1 X134.275 Y104.15 E10.50092
G1 X135.025 Y104.501 E10.54246
G1 X136.168 Y105.1 E10.60723
G1 X137.383 Y105.832 E10.67842
G1 X138.069 Y106.294 E10.71993
G1 X139.106 Y107.062 E10.78469
G1 X140.193 Y107.973 E10.85589
G1 X140.8 Y108.535 E10.89739
G1 X141.708 Y109.457 E10.96233
G1 X142.26 Y110.073 E11.00384
G1 X143.154 Y111.174 E11.07503
G1 X143.907 Y112.222 E11.13979
G1 X144.358 Y112.916 E11.18134
G1 X145.011 Y114.033 E11.24627
G1 X145.396 Y114.766 E11.28782
G1 X145.943 Y115.939 E11.35274
G1 X146.258 Y116.704 E11.39429
G1 X146.694 Y117.923 E11.45923
G1 X146.937 Y118.713 E11.50075
G1 X147.285 Y120.088 E11.57192
G1 X147.526 Y121.356 E11.63669
G1 X147.644 Y122.175 E11.67821
G1 X147.776 Y123.587 E11.74937
G1 X147.818 Y124.877 E11.81415
G1 X147.809 Y125.707 E11.85583
G1 X147.767 Y126.537 E11.8975
G1 X147.645 Y127.822 E11.96228
G1 X147.426 Y129.223 E12.03345
G1 X147.257 Y130.032 E12.07496
G1 X146.938 Y131.283 E12.13974
G1 X146.505 Y132.634 E12.21091
G1 X146.214 Y133.408 E12.25242
G1 X145.704 Y134.597 E12.31737
G1 X145.341 Y135.341 E12.35891
G1 X144.723 Y136.478 E12.42384
G1 X144.293 Y137.185 E12.46538
G1 X143.572 Y138.26 E12.53032
G1 X143.079 Y138.924 E12.57186
G1 X142.263 Y139.924 E12.63663
G1 X141.302 Y140.968 E12.70782
G1 X140.713 Y141.548 E12.74933
G1 X139.749 Y142.412 E12.81427
G1 X139.108 Y142.936 E12.85581
G1 X138.069 Y143.706 E12.92074
G1 X137.382 Y144.168 E12.96229
G1 X136.275 Y144.839 E13.02723
G1 X135.549 Y145.235 E13.06874
G1 X134.272 Y145.851 E13.13992
G1 X133.078 Y146.341 E13.20469
G1 X132.299 Y146.621 E13.2462
G1 X130.942 Y147.033 E13.31737
G1 X129.687 Y147.332 E13.38216
G1 X128.874 Y147.489 E13.42369
G1 X127.593 Y147.671 E13.48863
G1 X126.769 Y147.751 E13.53017
G1 X125.477 Y147.813 E13.59511
G1 X124.646 Y147.817 E13.63678
G1 X123.816 Y147.788 E13.67846
G1 X122.53 Y147.686 E13.74323
G1 X121.125 Y147.489 E13.8144
G1 X120.313 Y147.332 E13.85591
G1 X119.058 Y147.033 E13.92069
G1 X117.701 Y146.621 E13.99187
G1 X116.922 Y146.341 E14.03337
G1 X115.725 Y145.85 E14.09831
G1 X114.975 Y145.499 E14.13986
G1 X113.829 Y144.899 E14.20479
G1 X113.115 Y144.48 E14.24633
G1 X112.03 Y143.775 E14.31128
G1 X111.358 Y143.292 E14.35282
G1 X110.345 Y142.492 E14.41758
G1 X109.287 Y141.548 E14.48877
G1 X108.697 Y140.967 E14.53028
G1 X107.819 Y140.018 E14.59522
G1 X107.286 Y139.385 E14.63672
G1 X106.426 Y138.257 E14.70791
G1 X105.707 Y137.185 E14.77268
G1 X105.277 Y136.478 E14.81419
G1 X104.602 Y135.231 E14.88537
G1 X104.057 Y134.061 E14.95014
G1 X103.741 Y133.296 E14.99168
G1 X103.306 Y132.077 E15.05662
G1 X103.063 Y131.287 E15.09814
G1 X102.715 Y129.912 E15.16931
G1 X102.474 Y128.644 E15.23409
G1 X102.356 Y127.825 E15.2756
G1 X102.224 Y126.413 E15.34676
G1 X102.182 Y125.123 E15.41154
G1 X102.191 Y124.293 E15.45322
G1 X102.233 Y123.464 E15.49489
G1 X102.355 Y122.178 E15.55967
G1 X102.574 Y120.777 E15.63084
G1 X102.743 Y119.968 E15.67235
G1 X103.062 Y118.717 E15.73713
G1 X103.495 Y117.366 E15.8083
G1 X103.786 Y116.592 E15.84982
G1 X104.296 Y115.403 E15.91475
G1 X104.659 Y114.659 E15.9563
G1 X105.277 Y113.522 E16.02123
G1 X105.707 Y112.815 E16.06277
G1 X106.428 Y111.74 E16.12772
G1 X106.921 Y111.076 E16.16925
G1 X107.737 Y110.076 E16.23401
G1 X108.287 Y109.479 E16.27477
G1 X108.074 Y109.201 F7800
;TYPE:External perimeter
G1 F1800
G1 X108.45 Y108.792 E16.30263
G1 X109.051 Y108.2 E16.34496
G1 X110.026 Y107.326 E16.4107
G1 X110.68 Y106.792 E16.45305
G1 X111.732 Y106.012 E16.51879
G1 X112.432 Y105.541 E16.56114
G1 X113.552 Y104.862 E16.62688
G1 X114.293 Y104.458 E16.66922
G1 X115.588 Y103.834 E16.74135
G1 X116.798 Y103.337 E16.80702
G1 X117.592 Y103.052 E16.84936
G1 X118.968 Y102.634 E16.92149
G1 X120.24 Y102.331 E16.98717
G1 X121.069 Y102.171 E17.02952
G1 X122.366 Y101.987 E17.09526
G1 X123.206 Y101.905 E17.1376
G1 X124.642 Y101.838 E17.20977
G1 X125.486 Y101.842 E17.25211
G1 X126.793 Y101.905 E17.31779
G1 X128.222 Y102.06 E17.38991
G1 X129.055 Y102.194 E17.43226
G1 X130.338 Y102.458 E17.49799
G1 X131.155 Y102.669 E17.54034
G1 X132.408 Y103.051 E17.60608
G1 X133.202 Y103.337 E17.64843
G1 X134.414 Y103.834 E17.71417
G1 X135.178 Y104.192 E17.75652
G1 X136.337 Y104.799 E17.82219
