; generated by PrusaSlicer 2.4.2+linux-x64-GTK3 on 2024-03-02 at 22:48:51 UTC

; 

; external perimeters extrusion width = 0.45mm
; perimeters extrusion width = 0.45mm
; infill extrusion width = 0.45mm
; solid infill extrusion width = 0.45mm
; top infill extrusion width = 0.40mm
; first layer extrusion width = 0.42mm

M107
M190 S60 ; set bed temperature and wait for it to be reached
M104 S200 ; set temperature
;TYPE:Custom
G28 ; home all axes
G1 Z5 F5000 ; lift nozzle
M109 S200 ; set temperature and wait for it to be reached
G21 ; set units to millimeters
G90 ; use absolute coordinates
M82 ; use absolute distances for extrusion
G92 E0
; Filament gcode
M107
;LAYER_CHANGE
;Z:0.35
;HEIGHT:0.35
G1 Z.35 F7800
G1 E-2 F2400
G92 E0
G1 X90.812 Y90.114 F7800
G1 E2 F2400
;TYPE:Skirt/Brim
;WIDTH:0.42
G1 F1800
G1 X92.453 Y88.578 E2.11282
G1 X94.928 Y86.509 E2.2747
G1 X96.731 Y85.166 E2.38753
G1 X98.594 Y83.908 E2.50034
G1 X100.513 Y82.736 E2.61318
G1 X102.614 Y81.587 E2.73333
G1 X104.635 Y80.603 E2.84616
G1 X106.699 Y79.713 E2.95898
G1 X108.803 Y78.919 E3.07181
G1 X111.88 Y77.95 E3.2337
G1 X114.059 Y77.396 E3.34654
G1 X116.261 Y76.943 E3.45937
G1 X118.481 Y76.592 E3.57218
G1 X120.716 Y76.344 E3.68501
G1 X122.959 Y76.198 E3.79783
G1 X125.353 Y76.157 E3.91798
G1 X127.6 Y76.225 E4.03081
G1 X130.814 Y76.503 E4.1927
G1 X133.039 Y76.822 E4.30553
G1 X135.247 Y77.243 E4.41835
G1 X137.434 Y77.765 E4.53118
G1 X139.594 Y78.387 E4.644
G1 X141.724 Y79.108 E4.75683
G1 X143.952 Y79.983 E4.87697
G1 X146.004 Y80.903 E4.9898
G1 X148.011 Y81.916 E5.10264
G1 X150.804 Y83.529 E5.26453
G1 X152.686 Y84.76 E5.37736
G1 X154.508 Y86.077 E5.49018
G1 X156.267 Y87.476 E5.603
G1 X158.068 Y89.053 E5.72315
G1 X159.688 Y90.613 E5.83598
G1 X161.233 Y92.246 E5.94881
G1 X163.316 Y94.709 E6.11069
G1 X164.669 Y96.504 E6.22352
G1 X165.938 Y98.36 E6.33634
G1 X167.121 Y100.272 E6.44918
G1 X168.214 Y102.236 E6.56201
G1 X169.216 Y104.249 E6.67483
G1 X170.18 Y106.44 E6.79497
G1 X170.986 Y108.539 E6.9078
G1 X171.972 Y111.61 E7.06967
G1 X172.538 Y113.786 E7.18252
G1 X173.004 Y115.986 E7.29536
G1 X173.368 Y118.204 E7.40817
G1 X173.63 Y120.437 E7.52101
G1 X173.788 Y122.679 E7.63381
G1 X173.843 Y125.073 E7.75399
G1 X173.788 Y127.321 E7.86682
G1 X173.528 Y130.536 E8.0287
G1 X173.222 Y132.763 E8.14153
G1 X172.814 Y134.974 E8.25434
G1 X172.304 Y137.164 E8.36718
G1 X171.694 Y139.328 E8.48002
G1 X170.986 Y141.461 E8.59282
G1 X170.124 Y143.695 E8.71298
G1 X169.216 Y145.751 E8.8258
G1 X167.79 Y148.549 E8.9834
G1 X166.617 Y150.567 E9.10052
G1 X165.397 Y152.455 E9.21335
G1 X164.091 Y154.285 E9.32619
G1 X162.702 Y156.053 E9.43901
G1 X161.233 Y157.754 E9.55182
G1 X159.584 Y159.491 E9.67199
G1 X157.961 Y161.045 E9.7848
G1 X156.267 Y162.524 E9.89763
G1 X154.507 Y163.923 E10.01047
G1 X151.874 Y165.786 E10.17233
G1 X149.969 Y166.98 E10.28518
G1 X147.882 Y168.153 E10.40531
G1 X145.872 Y169.16 E10.51812
G1 X142.991 Y170.409 E10.67575
G1 X140.801 Y171.218 E10.79287
G1 X138.658 Y171.896 E10.9057
G1 X136.486 Y172.475 E11.0185
G1 X134.145 Y172.98 E11.13869
G1 X131.928 Y173.351 E11.25152
G1 X128.722 Y173.702 E11.41336
G1 X126.477 Y173.822 E11.5262
G1 X124.229 Y173.838 E11.63903
G1 X121.836 Y173.742 E11.75919
G1 X119.597 Y173.545 E11.87202
G1 X117.368 Y173.245 E11.98486
G1 X115.157 Y172.843 E12.09768
G1 X112.021 Y172.089 E12.25955
G1 X109.868 Y171.442 E12.37236
G1 X107.746 Y170.696 E12.48521
G1 X105.662 Y169.854 E12.59803
G1 X103.618 Y168.916 E12.71089
G1 X101.492 Y167.816 E12.83101
G1 X99.547 Y166.689 E12.94383
G1 X97.656 Y165.474 E13.05665
G1 X95.822 Y164.173 E13.16948
G1 X94.051 Y162.789 E13.28232
G1 X91.624 Y160.664 E13.4442
G1 X90.018 Y159.09 E13.55704
G1 X88.486 Y157.445 E13.66986
G1 X87.032 Y155.73 E13.78271
G1 X85.572 Y153.832 E13.90286
G1 X84.287 Y151.988 E14.01565
G1 X83.088 Y150.086 E14.12849
G1 X81.524 Y147.265 E14.29038
G1 X80.545 Y145.241 E14.40321
G1 X79.661 Y143.174 E14.51604
G1 X78.825 Y140.93 E14.6362
G1 X78.141 Y138.789 E14.74902
G1 X77.333 Y135.666 E14.91089
G1 X76.893 Y133.462 E15.02372
G1 X76.554 Y131.239 E15.13657
G1 X76.318 Y129.003 E15.24939
G1 X76.181 Y126.613 E15.36954
G1 X76.158 Y124.365 E15.48236
G1 X76.239 Y122.118 E15.59518
G1 X76.423 Y119.877 E15.70804
G1 X76.867 Y116.682 E15.8699
G1 X77.301 Y114.477 E15.98272
G1 X77.836 Y112.293 E16.09557
G1 X78.515 Y109.998 E16.21569
G1 X79.255 Y107.874 E16.32852
G1 X80.091 Y105.788 E16.44135
G1 X81.023 Y103.741 E16.55419
G1 X82.048 Y101.74 E16.66702
G1 X83.677 Y98.956 E16.8289
G1 X84.919 Y97.082 E16.94173
G1 X86.246 Y95.267 E17.05456
G1 X87.75 Y93.404 E17.17472
G1 X89.243 Y91.724 E17.28753
G1 X90.77 Y90.157 E17.39736
G1 E15.39736 F2400
G92 E0
G1 X95.838 Y95.332 F7800
G1 E2 F2400
;TYPE:Perimeter
G1 F1800
G1 X97.234 Y94.021 E2.09609
G1 X98.693 Y92.773 E2.19244
G1 X99.433 Y92.183 E2.23997
G1 X100.975 Y91.038 E2.33633
G1 X102.563 Y89.969 E2.43242
G1 X104.199 Y88.973 E2.52851
G1 X105.878 Y88.054 E2.6246
G1 X107.599 Y87.214 E2.72069
G1 X109.356 Y86.453 E2.81678
G1 X111.151 Y85.772 E2.91313
G1 X112.048 Y85.467 E2.96066
G1 X113.885 Y84.912 E3.05702
G1 X115.742 Y84.443 E3.1531
G1 X117.618 Y84.06 E3.2492
G1 X119.509 Y83.764 E3.34528
G1 X121.413 Y83.555 E3.44138
G1 X123.329 Y83.433 E3.53773
G1 X124.276 Y83.406 E3.58527
G1 X126.116 Y83.416 E3.67763
G1 X128.102 Y83.516 E3.77744
G1 X130.013 Y83.703 E3.87379
G1 X131.908 Y83.978 E3.96988
G1 X133.788 Y84.339 E4.06597
G1 X135.65 Y84.787 E4.16207
G1 X137.494 Y85.321 E4.25842
G1 X138.394 Y85.616 E4.30595
G1 X140.197 Y86.276 E4.4023
G1 X141.967 Y87.018 E4.49865
G1 X142.828 Y87.414 E4.54619
G1 X144.472 Y88.24 E4.63854
G1 X146.207 Y89.212 E4.73836
G1 X147.836 Y90.229 E4.83471
G1 X149.412 Y91.317 E4.9308
G1 X150.936 Y92.476 E5.02689
G1 X152.405 Y93.704 E5.12298
G1 X153.816 Y94.998 E5.21908
G1 X155.166 Y96.356 E5.31517
G1 X156.452 Y97.774 E5.41126
G1 X157.672 Y99.25 E5.50735
G1 X158.822 Y100.781 E5.60344
G1 X159.903 Y102.367 E5.69979
G1 X160.409 Y103.168 E5.74732
G1 X161.379 Y104.825 E5.84367
G1 X162.269 Y106.52 E5.93976
G1 X163.08 Y108.255 E6.03585
G1 X163.81 Y110.025 E6.13194
G1 X164.458 Y111.827 E6.22804
G1 X165.022 Y113.656 E6.32412
G1 X165.502 Y115.51 E6.42022
G1 X165.895 Y117.384 E6.51631
G1 X166.203 Y119.274 E6.6124
G1 X166.422 Y121.176 E6.70849
G1 X166.555 Y123.086 E6.80459
G1 X166.599 Y125.005 E6.90093
G1 X166.588 Y125.952 E6.94847
G1 X166.499 Y127.87 E7.04482
G1 X166.323 Y129.777 E7.14091
G1 X166.06 Y131.673 E7.237
G1 X165.708 Y133.56 E7.33334
G1 X165.503 Y134.485 E7.38088
G1 X165.022 Y136.344 E7.47723
G1 X164.458 Y138.173 E7.57332
G1 X163.81 Y139.975 E7.66941
G1 X163.079 Y141.745 E7.76551
G1 X162.269 Y143.48 E7.86159
G1 X161.379 Y145.175 E7.95768
G1 X160.409 Y146.832 E8.05403
G1 X159.903 Y147.633 E8.10157
G1 X158.822 Y149.219 E8.19792
G1 X157.672 Y150.75 E8.29401
G1 X156.452 Y152.226 E8.3901
G1 X155.166 Y153.644 E8.48619
G1 X153.816 Y155.002 E8.58228
G1 X152.405 Y156.296 E8.67837
G1 X150.936 Y157.524 E8.77446
G1 X149.412 Y158.683 E8.87055
G1 X147.832 Y159.774 E8.96691
G1 X147.034 Y160.285 E9.01443
G1 X145.383 Y161.264 E9.11079
G1 X143.692 Y162.163 E9.20688
G1 X141.963 Y162.984 E9.30297
G1 X140.197 Y163.724 E9.39906
G1 X138.399 Y164.383 E9.49515
G1 X136.572 Y164.958 E9.59125
G1 X134.722 Y165.448 E9.68734
G1 X132.85 Y165.852 E9.78343
G1 X130.957 Y166.171 E9.87977
G1 X130.018 Y166.296 E9.9273
G1 X128.107 Y166.484 E10.02366
G1 X126.195 Y166.583 E10.11975
G1 X124.281 Y166.594 E10.21584
G1 X122.367 Y166.517 E10.31193
G1 X120.46 Y166.352 E10.40802
G1 X118.562 Y166.099 E10.50411
G1 X116.677 Y165.759 E10.60021
G1 X114.806 Y165.332 E10.69656
G1 X113.89 Y165.09 E10.74409
G1 X112.052 Y164.534 E10.84043
G1 X110.247 Y163.897 E10.93653
G1 X108.468 Y163.175 E11.03288
G1 X107.603 Y162.789 E11.08041
G1 X105.878 Y161.946 E11.17676
G1 X104.199 Y161.027 E11.27285
G1 X102.563 Y160.031 E11.36894
G1 X100.975 Y158.962 E11.46503
G1 X99.437 Y157.821 E11.56112
G1 X97.954 Y156.61 E11.65722
G1 X96.528 Y155.332 E11.75331
G1 X95.163 Y153.989 E11.8494
G1 X93.857 Y152.582 E11.94575
G1 X93.237 Y151.866 E11.99328
G1 X92.032 Y150.372 E12.08963
G1 X90.899 Y148.828 E12.18572
G1 X89.839 Y147.234 E12.28182
G1 X88.853 Y145.592 E12.3779
G1 X87.944 Y143.907 E12.47399
G1 X87.113 Y142.182 E12.57008
G1 X86.362 Y140.421 E12.66618
G1 X85.694 Y138.627 E12.76227
G1 X85.108 Y136.803 E12.85837
G1 X84.627 Y135.032 E12.95047
G1 X84.39 Y134.028 E13.00228
G1 X84.017 Y132.145 E13.09859
G1 X83.731 Y130.252 E13.19468
G1 X83.533 Y128.347 E13.29078
G1 X83.423 Y126.436 E13.38687
G1 X83.401 Y124.521 E13.48296
G1 X83.467 Y122.608 E13.57905
G1 X83.621 Y120.699 E13.67514
G1 X83.864 Y118.795 E13.77149
G1 X84.016 Y117.86 E13.81902
G1 X84.389 Y115.977 E13.91537
G1 X84.847 Y114.118 E14.01147
G1 X85.391 Y112.282 E14.10755
G1 X86.018 Y110.473 E14.20364
G1 X86.728 Y108.694 E14.29974
G1 X87.518 Y106.95 E14.39583
G1 X88.389 Y105.245 E14.49192
G1 X89.339 Y103.577 E14.58827
G1 X89.836 Y102.771 E14.6358
G1 X90.899 Y101.172 E14.73215
G1 X92.032 Y99.628 E14.82824
G1 X93.234 Y98.138 E14.92433
G1 X94.504 Y96.705 E15.02042
G1 X95.796 Y95.375 E15.1135
G1 X95.596 Y95.086 F7800
G1 F1800
G1 X97.004 Y93.764 E15.21039
G1 X98.473 Y92.507 E15.30744
G1 X99.223 Y91.909 E15.35557
G1 X100.776 Y90.756 E15.45262
G1 X102.377 Y89.678 E15.5495
G1 X104.026 Y88.675 E15.64639
G1 X105.72 Y87.748 E15.74328
G1 X107.454 Y86.9 E15.84017
G1 X109.226 Y86.133 E15.93706
G1 X111.034 Y85.448 E16.03411
G1 X111.942 Y85.139 E16.08223
G1 X113.793 Y84.579 E16.17928
G1 X115.665 Y84.107 E16.27617
G1 X117.557 Y83.721 E16.37306
G1 X119.464 Y83.422 E16.46994
G1 X121.383 Y83.211 E16.56683
G1 X123.313 Y83.089 E16.66388
G1 X124.272 Y83.061 E16.71201
G1 X126.123 Y83.071 E16.80495
G1 X128.13 Y83.172 E16.90578
G1 X130.054 Y83.361 E17.00283
G1 X131.965 Y83.638 E17.09972
G1 X133.861 Y84.002 E17.19661
G1 X135.738 Y84.453 E17.2935
G1 X137.596 Y84.991 E17.39055
G1 X138.507 Y85.29 E17.43867
G1 X140.323 Y85.955 E17.53572
G1 X142.106 Y86.702 E17.63277
G1 X142.977 Y87.103 E17.6809
G1 X144.632 Y87.935 E17.77384
G1 X146.385 Y88.917 E17.87467
G1 X148.025 Y89.941 E17.97171
G1 X149.614 Y91.037 E18.06861
G1 X151.151 Y92.206 E18.16549
G1 X152.632 Y93.444 E18.26238
G1 X154.055 Y94.749 E18.35927
G1 X155.416 Y96.118 E18.45616
G1 X156.713 Y97.548 E18.55304
G1 X157.942 Y99.037 E18.64994
G1 X159.102 Y100.58 E18.74682
G1 X160.192 Y102.178 E18.84387
G1 X160.704 Y102.989 E18.892
G1 X161.681 Y104.658 E18.98904
G1 X162.578 Y106.367 E19.08593
G1 X163.395 Y108.116 E19.18282
G1 X164.132 Y109.901 E19.27971
G1 X164.785 Y111.717 E19.3766
G1 X165.354 Y113.562 E19.47348
G1 X165.837 Y115.431 E19.57037
G1 X166.235 Y117.321 E19.66726
G1 X166.544 Y119.226 E19.76415
G1 X166.766 Y121.144 E19.86104
G1 X166.899 Y123.07 E19.95793
G1 X166.944 Y125.003 E20.05497
G1 X166.933 Y125.962 E20.1031
G1 X166.844 Y127.894 E20.20015
G1 X166.666 Y129.816 E20.29704
G1 X166.4 Y131.728 E20.39393
G1 X166.046 Y133.629 E20.49097
G1 X165.838 Y134.566 E20.5391
G1 X165.354 Y136.438 E20.63615
G1 X164.785 Y138.283 E20.73304
G1 X164.132 Y140.099 E20.82993
G1 X163.395 Y141.884 E20.92682
G1 X162.578 Y143.633 E21.0237
G1 X161.681 Y145.342 E21.12059
G1 X160.704 Y147.011 E21.21764
G1 X160.192 Y147.822 E21.26577
G1 X159.102 Y149.42 E21.36282
G1 X157.942 Y150.963 E21.4597
G1 X156.713 Y152.452 E21.55659
G1 X155.416 Y153.882 E21.65348
G1 X154.055 Y155.251 E21.75037
G1 X152.632 Y156.556 E21.84725
G1 X151.151 Y157.794 E21.94414
G1 X149.614 Y158.962 E22.04103
G1 X148.023 Y160.061 E22.13808
G1 X147.215 Y160.578 E22.18621
G1 X145.552 Y161.564 E22.28326
G1 X143.847 Y162.471 E22.38015
G1 X142.103 Y163.299 E22.47703
G1 X140.323 Y164.045 E22.57392
G1 X138.51 Y164.709 E22.67081
G1 X136.668 Y165.289 E22.7677
G1 X134.802 Y165.783 E22.86459
G1 X132.915 Y166.191 E22.96147
G1 X131.008 Y166.512 E23.05852
G1 X130.058 Y166.639 E23.10664
G1 X128.133 Y166.828 E23.2037
G1 X126.205 Y166.928 E23.30058
G1 X124.275 Y166.939 E23.39747
G1 X122.346 Y166.861 E23.49436
G1 X120.422 Y166.695 E23.59125
G1 X118.508 Y166.44 E23.68814
G1 X116.608 Y166.097 E23.78503
G1 X114.723 Y165.667 E23.88207
G1 X113.796 Y165.421 E23.9302
G1 X111.945 Y164.862 E24.02725
G1 X110.125 Y164.219 E24.12413
G1 X108.333 Y163.492 E24.22119
G1 X107.457 Y163.101 E24.26931
G1 X105.72 Y162.252 E24.36636
G1 X104.026 Y161.325 E24.46325
G1 X102.377 Y160.322 E24.56014
G1 X100.775 Y159.244 E24.65702
G1 X99.225 Y158.093 E24.75391
G1 X97.73 Y156.872 E24.8508
G1 X96.292 Y155.583 E24.94769
G1 X94.915 Y154.23 E25.04458
G1 X93.6 Y152.812 E25.14163
G1 X92.972 Y152.087 E25.18975
G1 X91.758 Y150.582 E25.2868
G1 X90.616 Y149.026 E25.38369
G1 X89.547 Y147.418 E25.48058
G1 X88.553 Y145.763 E25.57747
G1 X87.636 Y144.064 E25.67435
G1 X86.799 Y142.325 E25.77124
G1 X86.042 Y140.549 E25.86813
G1 X85.368 Y138.74 E25.96502
G1 X84.777 Y136.901 E26.06191
G1 X84.293 Y135.117 E26.15469
G1 X84.053 Y134.101 E26.20711
G1 X83.677 Y132.204 E26.30413
G1 X83.389 Y130.295 E26.40102
G1 X83.19 Y128.375 E26.49791
G1 X83.079 Y126.448 E26.59479
G1 X83.056 Y124.517 E26.69168
G1 X83.123 Y122.588 E26.78857
G1 X83.278 Y120.664 E26.88546
G1 X83.523 Y118.745 E26.98251
G1 X83.676 Y117.799 E27.03064
G1 X84.052 Y115.902 E27.12768
G1 X84.514 Y114.027 E27.22457
G1 X85.062 Y112.176 E27.32146
G1 X85.694 Y110.352 E27.41834
G1 X86.41 Y108.559 E27.51524
G1 X87.207 Y106.801 E27.61212
G1 X88.085 Y105.081 E27.70901
G1 X89.042 Y103.401 E27.80606
G1 X89.545 Y102.584 E27.85419
G1 X90.616 Y100.974 E27.95123
G1 X91.758 Y99.418 E28.04812
G1 X92.971 Y97.915 E28.14501
G1 X94.251 Y96.47 E28.2419
G1 X95.554 Y95.129 E28.33577
G1 X95.354 Y94.84 F7800
;TYPE:External perimeter
G1 F1800
G1 X96.774 Y93.507 E28.43346
G1 X98.253 Y92.241 E28.53121
G1 X99.012 Y91.636 E28.57993
G1 X100.576 Y90.475 E28.67768
G1 X102.191 Y89.388 E28.77536
G1 X103.854 Y88.376 E28.87305
G1 X105.561 Y87.442 E28.97073
G1 X107.31 Y86.587 E29.06841
G1 X109.096 Y85.814 E29.1661
G1 X110.917 Y85.123 E29.26385
G1 X111.837 Y84.81 E29.31257
G1 X113.701 Y84.247 E29.41032
G1 X115.588 Y83.77 E29.508
G1 X117.495 Y83.381 E29.60569
G1 X119.418 Y83.08 E29.70337
G1 X121.353 Y82.867 E29.80106
G1 X123.297 Y82.744 E29.8988
G1 X124.267 Y82.716 E29.94753
G1 X126.131 Y82.726 E30.04105
G1 X127.188 Y82.767 E30.09413
G1 X128.158 Y82.828 E30.1429
G1 X130.096 Y83.018 E30.24065
G1 X132.022 Y83.297 E30.33833
G1 X133.934 Y83.665 E30.43602
G1 X135.827 Y84.12 E30.5337
G1 X137.697 Y84.662 E30.63145
G1 X138.62 Y84.964 E30.68017
G1 X140.449 Y85.633 E30.77792
G1 X142.245 Y86.387 E30.87567
G1 X143.127 Y86.793 E30.92439
G1 X144.792 Y87.629 E31.01791
G1 X145.721 Y88.135 E31.07099
G1 X146.563 Y88.621 E31.11976
G1 X148.215 Y89.652 E31.21751
G1 X149.817 Y90.758 E31.3152
G1 X151.366 Y91.936 E31.41288
G1 X152.859 Y93.185 E31.51056
G1 X154.294 Y94.5 E31.60825
G1 X155.666 Y95.881 E31.70594
G1 X156.974 Y97.323 E31.80362
G1 X158.213 Y98.823 E31.90131
G1 X159.383 Y100.379 E31.99899
G1 X160.48 Y101.989 E32.09673
G1 X160.999 Y102.809 E32.14546
G1 X161.982 Y104.49 E32.24321
G1 X162.887 Y106.214 E32.34089
G1 X163.711 Y107.977 E32.43858
G1 X164.453 Y109.776 E32.53626
G1 X165.112 Y111.608 E32.63395
G1 X165.686 Y113.468 E32.73163
G1 X166.173 Y115.353 E32.82932
G1 X166.574 Y117.257 E32.927
G1 X166.886 Y119.179 E33.02468
G1 X167.109 Y121.112 E33.12237
G1 X167.244 Y123.054 E33.22006
G1 X167.289 Y125.001 E33.3178
G1 X167.277 Y125.972 E33.36653
G1 X167.188 Y127.918 E33.46427
G1 X167.009 Y129.856 E33.56196
G1 X166.741 Y131.784 E33.65964
G1 X166.384 Y133.699 E33.75739
G1 X166.174 Y134.646 E33.80611
G1 X165.686 Y136.532 E33.90386
G1 X165.112 Y138.392 E34.00154
G1 X164.453 Y140.223 E34.09923
G1 X163.711 Y142.023 E34.19691
G1 X162.887 Y143.786 E34.2946
G1 X161.982 Y145.51 E34.39228
G1 X160.999 Y147.191 E34.49002
G1 X160.48 Y148.011 E34.53875
G1 X159.383 Y149.621 E34.6365
G1 X158.213 Y151.177 E34.73418
G1 X156.974 Y152.677 E34.83187
G1 X155.666 Y154.119 E34.92955
G1 X154.294 Y155.5 E35.02724
G1 X152.859 Y156.815 E35.12492
G1 X151.366 Y158.064 E35.22261
G1 X149.817 Y159.242 E35.32029
G1 X148.214 Y160.348 E35.41804
G1 X147.396 Y160.872 E35.46676
G1 X145.721 Y161.865 E35.56451
G1 X144.002 Y162.78 E35.6622
G1 X142.244 Y163.614 E35.75988
G1 X140.449 Y164.367 E35.85756
G1 X138.621 Y165.036 E35.95525
